app/images/icons/uptime.svg

<svg width="24" height="22" viewBox="0 0 24 22" fill="none" xmlns="http://www.w3.org/2000/svg">
<path d="M6.70312 5.70312C5.89062 6.54688 5.29688 7.48438 4.92188 8.51562C4.76562 8.89062 4.51562 9.17188 4.17188 9.35938C3.79688 9.51562 3.40625 9.53125 3 9.40625C2.625 9.25 2.34375 9 2.15625 8.65625C2 8.28125 1.98438 7.89062 2.10938 7.48438C2.60938 6.04688 3.4375 4.75 4.59375 3.59375C5.96875 2.21875 7.54688 1.29688 9.32812 0.828125C11.0781 0.390625 12.8438 0.390625 14.625 0.828125C16.4062 1.26562 17.9844 2.17188 19.3594 3.54688L21.3281 1.57812C21.7031 1.23438 22.1094 1.15625 22.5469 1.34375C22.9844 1.53125 23.2188 1.875 23.25 2.375V8.375C23.1875 9.0625 22.8125 9.4375 22.125 9.5H16.125C15.625 9.46875 15.2812 9.23438 15.0938 8.79688C14.9062 8.35938 14.9844 7.95312 15.3281 7.57812L17.25 5.65625C15.7188 4.21875 13.9531 3.5 11.9531 3.5C9.98438 3.5 8.23438 4.23438 6.70312 5.70312ZM0.75 13.625C0.8125 12.9375 1.1875 12.5625 1.875 12.5H7.875C8.375 12.5312 8.71875 12.7656 8.90625 13.2031C9.09375 13.6406 9.01562 14.0469 8.67188 14.4219L6.75 16.3438C8.28125 17.7812 10.0469 18.5 12.0469 18.5C14.0156 18.5 15.7656 17.7656 17.2969 16.2969C18.1406 15.4844 18.7344 14.5469 19.0781 13.4844C19.2344 13.1094 19.4844 12.8281 19.8281 12.6406C20.2031 12.4844 20.5938 12.4688 21 12.5938C21.375 12.75 21.6562 13 21.8438 13.3438C22.0312 13.7188 22.0469 14.1094 21.8906 14.5156C21.3906 15.9531 20.5625 17.25 19.4062 18.4062C18.0312 19.7812 16.4531 20.7031 14.6719 21.1719C12.9219 21.6094 11.1562 21.6094 9.375 21.1719C7.59375 20.7344 6.01562 19.8281 4.64062 18.4531L2.67188 20.4219C2.29688 20.7656 1.89062 20.8438 1.45312 20.6562C1.01562 20.4688 0.78125 20.125 0.75 19.625V13.625Z" fill="#1D53C0"/>
</svg>

<svg width="24" height="22" fill="none" xmlns="http://www.w3.org/2000/svg"><path d="M6.703 5.703c-.812.844-1.406 1.781-1.781 2.813a1.654 1.654 0 01-.75.843A1.677 1.677 0 013 9.406a1.654 1.654 0 01-.844-.75 1.677 1.677 0 01-.047-1.172c.5-1.437 1.329-2.734 2.485-3.89C5.969 2.219 7.547 1.297 9.328.828a10.852 10.852 0 015.297 0c1.781.438 3.36 1.344 4.734 2.719l1.97-1.969c.374-.344.78-.422 1.218-.234.437.187.672.531.703 1.031v6c-.063.688-.438 1.063-1.125 1.125h-6c-.5-.031-.844-.266-1.031-.703-.188-.438-.11-.844.234-1.219l1.922-1.922C15.719 4.22 13.953 3.5 11.953 3.5c-1.969 0-3.719.734-5.25 2.203zM.75 13.625c.063-.688.438-1.063 1.125-1.125h6c.5.031.844.266 1.031.703.188.438.11.844-.234 1.219L6.75 16.344c1.531 1.437 3.297 2.156 5.297 2.156 1.969 0 3.719-.734 5.25-2.203.844-.813 1.437-1.75 1.781-2.813.156-.375.406-.656.75-.843A1.677 1.677 0 0121 12.594c.375.156.656.406.844.75.187.375.203.765.047 1.172-.5 1.437-1.328 2.734-2.485 3.89-1.375 1.375-2.953 2.297-4.734 2.766-1.75.437-3.516.437-5.297 0-1.781-.438-3.36-1.344-4.734-2.719l-1.97 1.969c-.374.344-.78.422-1.218.234-.437-.187-.672-.531-.703-1.031v-6z" fill="#1D53C0"/></svg>
